svgs/duotone/soap.svg

<svg xmlns="http://www.w3.org/2000/svg" viewBox="0 0 512 512"><!-- Font Awesome Pro 6.0.0-alpha2 by @fontawesome - https://fontawesome.com License - https://fontawesome.com/license (Commercial License) --><defs><style>.fa-secondary{opacity:.4}</style></defs><path d="M320 128C284.654 128 256 156.652 256 192C256 227.346 284.654 256 320 256S384 227.346 384 192C384 156.652 355.346 128 320 128ZM208 0C181.49 0 160 21.49 160 48S181.49 96 208 96S256 74.51 256 48S234.51 0 208 0ZM384 0C366.326 0 352 14.326 352 32C352 49.672 366.326 64 384 64S416 49.672 416 32C416 14.326 401.674 0 384 0Z" class="fa-secondary"/><path d="M416 192C416 219.824 403.977 244.676 385.062 262.209C421.719 275.721 448 310.652 448 352C448 405.02 405.02 448 352 448H160C106.98 448 64 405.02 64 352S106.98 256 160 256H248.914C233.59 238.988 224 216.699 224 192H96C42.98 192 0 234.98 0 288V416C0 469.02 42.98 512 96 512H416C469.02 512 512 469.02 512 416V288C512 234.98 469.02 192 416 192ZM96 352C96 387.346 124.654 416 160 416H352C387.346 416 416 387.346 416 352C416 316.652 387.346 288 352 288H160C124.654 288 96 316.652 96 352Z" class="fa-primary"/></svg>

<svg xmlns="http://www.w3.org/2000/svg" viewBox="0 0 512 512"><!--! Font Awesome Pro 6.3.0 by @fontawesome - https://fontawesome.com License - https://fontawesome.com/license (Commercial License) Copyright 2023 Fonticons, Inc. --><defs><style>.fa-secondary{opacity:.4}</style></defs><path class="fa-primary" d="M416 192c0 27.82-12.02 52.68-30.94 70.21C421.7 275.7 448 310.7 448 352c0 53.02-42.98 96-96 96H160c-53.02 0-96-42.98-96-96s42.98-96 96-96h88.91C233.6 238.1 224 216.7 224 192H96C42.98 192 0 234.1 0 288v128c0 53.02 42.98 96 96 96h320c53.02 0 96-42.98 96-96V288C512 234.1 469 192 416 192zM96 352c0 35.35 28.65 64 64 64h192c35.35 0 64-28.65 64-64c0-35.35-28.65-64-64-64H160C124.7 288 96 316.7 96 352z"/><path class="fa-secondary" d="M320 128c-35.35 0-64 28.65-64 64c0 35.35 28.65 64 64 64s64-28.65 64-64C384 156.7 355.3 128 320 128zM208 0C181.5 0 160 21.49 160 48S181.5 96 208 96S256 74.51 256 48S234.5 0 208 0zM384 0c-17.67 0-32 14.33-32 32c0 17.67 14.33 32 32 32s32-14.33 32-32C416 14.33 401.7 0 384 0z"/></svg>
